X: 1
T: Paddy Wack
M: 6/8
L: 1/8
R: jig
K: Gmaj
|:GBd gfg|edc BAG|GBd gfg|fdd d2 e/f/|
geg fdf|ece dBd|cBc ABc|BGG G3:|
|:BcB ccc|dcB A2 G|Bcd efg|fdd d2 e/f/|
geg fdf|ece dBd|cBc ABc|BGG G3:|
